public/home/cloud-1.svg

<svg width="450" height="128" viewBox="0 0 450 128" fill="none" xmlns="http://www.w3.org/2000/svg">
<g filter="url(#filter0_dd_30_4)">
<path d="M405.521 88.5632H26.7998L154.548 67.6893C170.967 65.0065 186.128 57.2346 197.892 45.4708L211.094 32.269C237.127 6.23573 280.298 9.77688 301.741 39.7045C318.336 62.8652 350.468 74.419 378.902 76.2261C398.674 77.4827 417.399 80.6013 421.727 83.8219C427.051 87.783 412.157 88.5632 405.521 88.5632Z" fill="url(#paint0_linear_30_4)" shape-rendering="crispEdges"/>
<path d="M211.801 32.9763C237.397 7.37961 279.845 10.8611 300.929 40.2869C317.769 63.7909 350.253 75.4076 378.839 77.2244C388.696 77.8508 398.284 78.9404 405.935 80.2722C409.761 80.9384 413.088 81.6631 415.715 82.4148C418.38 83.1775 420.207 83.9363 421.131 84.6238C421.661 85.0182 421.807 85.268 421.844 85.3533C421.826 85.3769 421.793 85.4161 421.731 85.4675C421.502 85.6602 421.065 85.8876 420.377 86.113C419.708 86.3322 418.88 86.5253 417.935 86.6931C414.136 87.3676 408.824 87.5632 405.521 87.5632H39.123L154.709 68.6765C171.335 65.9599 186.688 58.0895 198.6 46.1775L211.801 32.9763Z" stroke="url(#paint1_linear_30_4)" stroke-width="2" shape-rendering="crispEdges"/>
</g>
<defs>
<filter id="filter0_dd_30_4" x="-0.00019455" y="4.95911e-05" width="449.656" height="127.363" filterUnits="userSpaceOnUse" color-interpolation-filters="sRGB">
<feFlood flood-opacity="0" result="BackgroundImageFix"/>
<feColorMatrix in="SourceAlpha" type="matrix" values="0 0 0 0 0 0 0 0 0 0 0 0 0 0 0 0 0 0 127 0" result="hardAlpha"/>
<feOffset dy="4"/>
<feGaussianBlur stdDeviation="2"/>
<feComposite in2="hardAlpha" operator="out"/>
<feColorMatrix type="matrix" values="0 0 0 0 0 0 0 0 0 0 0 0 0 0 0 0 0 0 0.25 0"/>
<feBlend mode="normal" in2="BackgroundImageFix" result="effect1_dropShadow_30_4"/>
<feColorMatrix in="SourceAlpha" type="matrix" values="0 0 0 0 0 0 0 0 0 0 0 0 0 0 0 0 0 0 127 0" result="hardAlpha"/>
<feOffset dy="12"/>
<feGaussianBlur stdDeviation="13.4"/>
<feComposite in2="hardAlpha" operator="out"/>
<feColorMatrix type="matrix" values="0 0 0 0 0 0 0 0 0 0 0 0 0 0 0 0 0 0 0.25 0"/>
<feBlend mode="normal" in2="effect1_dropShadow_30_4" result="effect2_dropShadow_30_4"/>
<feBlend mode="normal" in="SourceGraphic" in2="effect2_dropShadow_30_4" result="shape"/>
</filter>
<linearGradient id="paint0_linear_30_4" x1="112.383" y1="81.82" x2="385.972" y2="67.0546" gradientUnits="userSpaceOnUse">
<stop stop-color="#D9D9D9" stop-opacity="0.8"/>
<stop offset="1" stop-color="#737373" stop-opacity="0.6"/>
</linearGradient>
<linearGradient id="paint1_linear_30_4" x1="161.275" y1="-5.22536" x2="174.034" y2="96.5034" gradientUnits="userSpaceOnUse">
<stop stop-color="white" stop-opacity="0.8"/>
<stop offset="1" stop-color="#999999" stop-opacity="0.09"/>
</linearGradient>
</defs>
</svg>

<svg xmlns="http://www.w3.org/2000/svg" width="450" height="128" fill="none" viewBox="0 0 450 128"><g filter="url(#a)" shape-rendering="crispEdges"><path fill="url(#b)" d="M405.521 88.563H26.8L154.548 67.69a79.4 79.4 0 0 0 43.344-22.218l13.202-13.202c26.033-26.033 69.204-22.492 90.647 7.436 16.595 23.16 48.727 34.714 77.161 36.521 19.772 1.257 38.497 4.375 42.825 7.596 5.324 3.961-9.57 4.741-16.206 4.741"/><path stroke="url(#c)" stroke-width="2" d="M211.801 32.976c25.596-25.596 68.044-22.115 89.128 7.31 16.84 23.505 49.324 35.122 77.91 36.938 9.857.627 19.445 1.716 27.096 3.048 3.826.666 7.153 1.391 9.78 2.143 2.665.762 4.492 1.521 5.416 2.209.53.394.676.644.713.73a.7.7 0 0 1-.113.114c-.229.192-.666.42-1.354.645-.669.22-1.497.412-2.442.58-3.799.675-9.111.87-12.414.87H39.123l115.586-18.886a80.4 80.4 0 0 0 43.891-22.5z"/></g><defs><linearGradient id="b" x1="112.383" x2="385.972" y1="81.82" y2="67.055" gradientUnits="userSpaceOnUse"><stop stop-color="#d9d9d9" stop-opacity=".8"/><stop offset="1" stop-color="#737373" stop-opacity=".6"/></linearGradient><linearGradient id="c" x1="161.275" x2="174.034" y1="-5.225" y2="96.503" gradientUnits="userSpaceOnUse"><stop stop-color="#fff" stop-opacity=".8"/><stop offset="1" stop-color="#999" stop-opacity=".09"/></linearGradient><filter id="a" width="449.656" height="127.363" x="0" y="0" color-interpolation-filters="sRGB" filterUnits="userSpaceOnUse"><feFlood flood-opacity="0" result="BackgroundImageFix"/><feColorMatrix in="SourceAlpha" result="hardAlpha" values="0 0 0 0 0 0 0 0 0 0 0 0 0 0 0 0 0 0 127 0"/><feOffset dy="4"/><feGaussianBlur stdDeviation="2"/><feComposite in2="hardAlpha" operator="out"/><feColorMatrix values="0 0 0 0 0 0 0 0 0 0 0 0 0 0 0 0 0 0 0.25 0"/><feBlend in2="BackgroundImageFix" result="effect1_dropShadow_30_4"/><feColorMatrix in="SourceAlpha" result="hardAlpha" values="0 0 0 0 0 0 0 0 0 0 0 0 0 0 0 0 0 0 127 0"/><feOffset dy="12"/><feGaussianBlur stdDeviation="13.4"/><feComposite in2="hardAlpha" operator="out"/><feColorMatrix values="0 0 0 0 0 0 0 0 0 0 0 0 0 0 0 0 0 0 0.25 0"/><feBlend in2="effect1_dropShadow_30_4" result="effect2_dropShadow_30_4"/><feBlend in="SourceGraphic" in2="effect2_dropShadow_30_4" result="shape"/></filter></defs></svg>
